X:2878
T:Charlie Lennon's
M:4/4
L:1/8
S:De Danaan
R:Reel
D:TV show
Z:Bernie Stocks
K:D
dB |:AF~F2 dFBF | ABdf eB~B2 | AF~F2 dFBF | E2CE A,ECE | FEFA B2dB | ABdf eB~B2 |\
gfge fa~a2 | ABde fdd2 :| f2de f2de | fgaf gee2 | f3a a2fd | ABde fdd2 |\
f2de f2de | fgaf gee2 | gfab aff2 | efde fdd2 | f2de f2de | fgaf gee2 |\
f3a a2fd | ABde fdd2 | faaf bfaf | dfaf geef | g3e f3d | e2ag fdd2||


